X:1
T:Title
%%score 1 2 3 4
L:1/8
Q:1/4=73
M:2/2
K:Bb
V:1 treble transpose=-2 nm="MusicXML Part"
V:2 treble transpose=-7 nm="MusicXML Part"
V:3 treble transpose=-7 nm="MusicXML Part"
V:4 bass nm="MusicXML Part"
V:1
[K:C] A4 c4- | c2 B2 d2 c2 | f2 f2 e4 | e2 e4 d2 | c2 c2 B4 || B2 B4 A2 |[M:3/2] B2 G2 A2 B2 c4 | %7
w: O Lord|_ turn not a-|way thy face|From him that|lies pro- strate,|La- ment- ing|sore his sin- ful life|
w: So come|_ I to thy|mer- cy gate,|Where mer- cy|doth a- bound,|Re- quir- ing|mer- cy for my sin|
[M:2/2] A2 c4 A2 | B2 B2 A4 || A4 A2 G2 |[M:3/2] c2 B2 c2 d2 e4 |[M:2/2] e2 f4 e2 | e2 d2 e4 | %13
w: Be- fore thy|mer- cy gate.|Which gate thou|o- penest wide to those|That do la-|ment their sin;|
w: To heal my|dead- ly wound.|Mer- cy, good|Lord, mer- cy I ask,|This is the|to- tal sum;|
 e2 g4 d2 |[M:3/2] e2 c2 B2 A2 d4 |[M:2/2] B4 e2 d2- |[M:3/2] d2 c2 B4 A4 |] %17
w: Shut not that|gate a- gainst me Lord,|But let me|_ en- ter in.|
w: For mer- cy,|Lord, is all my suit:|Lord, let thy|_ mer- cy come.|
V:2
[K:F] F2 G2 A4 | B3 c d2 d2 | d2 d2 d4 | ^c4 d2 G2 | A3 A A4 || c4 A3 =B | %6
w: O _ Lord|turn not _ a-|way thy face|From him that|lies pro- strate,|La- ment- ing|
w: So _ come|I to _ thy|mer- cy gate,|Where mer- cy|doth a- bound,|Re- quir- ing|
[M:3/2] c2 A2 A d2 ^c d4 |[M:2/2] A2 d2- dc B2 | B2 AG ^F4 || A4 A2 A2 |[M:3/2] A3 A A2 d2 ^c4 | %11
w: sore his sin- ful _ life|Be- fore _ thy _|mer- cy _ gate.|Which gate thou|o- penest wide to those|
w: mer- cy for my _ sin|To heal _ my _|dead- ly _ wound.|Mer- cy, good|Lord, mer- cy I ask,|
[M:2/2] d4 e2 A2- | A d2 d ^c4 | e2 e4 c2 |[M:3/2] c2 c2 B6 =B2 |[M:2/2] c4 ^c3 d | %16
w: That do la-|* ment their sin;|Shut not that|gate a- gainst me|Lord, But let|
w: This is the|_ to- tal sum;|For mer- cy,|Lord, is all my|suit: Lord, let|
[M:3/2] e2 AA- AG E2 ^F4 |] %17
w: _ me en- * ter _ in.|
w: _ thy mer- * cy _ come.|
V:3
[K:F] A4 D4- | D2 F2 B2 A2- | A G2 G ^F4 | E2 F2- FF E2- | E2 D2 ^C4 || A2 G2 F4 | %6
w: O Lord|_ turn not a-|* way thy face|From him _ that lies|_ pro- strate,|La- ment- ing|
w: So come|_ I to thy|_ mer- cy gate,|Where mer- * cy doth|_ a- bound,|Re- quir- ing|
[M:3/2] E3 E F2 G2 A4 |[M:2/2] F2 A4 GF | G>E ^C2 D4 || F4 E3 E |[M:3/2] ^C3 C DF ED E4 | %11
w: sore his sin- ful life|Be- fore thy _|mer- cy _ gate.|Which gate thou|o- penest wide _ to _ those|
w: mer- cy for my sin|To heal my _|dead- ly _ wound.|Mer- cy, good|Lord, mer- cy _ I _ ask,|
[M:2/2] ^F2 G4 =FE | FE/F/ ED E4 | c2 A2- AG E2 |[M:3/2] F2 A2 G2 F4 ED |[M:2/2] A2 G2 F2 ED | %16
w: That do la- *|ment their _ _ _ sin;|Shut not _ that _|gate a- gainst _ me _|Lord, But let me _|
w: This is the _|to- tal _ _ _ sum;|For mer- * cy, _|Lord, is all _ my _|suit: Lord, let thy _|
[M:3/2] ^C2 D4 C2 D4 |] %17
w: en- * ter in.|
w: mer- * cy come.|
V:4
 G,6 F,2 | E,3 D, C,2 G,2 | C,2 C,2 G,4 | D,4 E,3 E, | D,3 D, D,4 || D,4 D,3 D, | %6
w: O Lord|turn not _ a-|way thy face|From him that|lies pro- strate,|La- ment- ing|
w: So come|I to _ thy|mer- cy gate,|Where mer- cy|doth a- bound,|Re- quir- ing|
[M:3/2] D,3 C, B,,2 A,,2 G,,4 |[M:2/2] G,3 F, E,3 D, | C,2 D,2 G,,4 || G,,4 D,3 D, | %10
w: sore his sin- ful life|Be- fore _ thy|mer- cy gate.|Which gate thou|
w: mer- cy for my sin|To heal _ my|dead- ly wound.|Mer- cy, good|
[M:3/2] D,2 D,2 B,,2 E,2 D,4 |[M:2/2] G,4 ^F,3 F, | G,2 E,2 D,4 | D,4 F,3 F, | %14
w: o- penest wide to those|That do la-|ment their sin;|Shut not that|
w: Lord, mer- cy I ask,|This is the|to- tal sum;|For mer- cy,|
[M:3/2] B,,3 C,/D,/ E,3 D, C,4 |[M:2/2] D,4 D,4 |[M:3/2] D,4 D,2 D,2 G,,4 |] %17
w: gate a- * gainst me Lord,|But let|me en- ter in.|
w: Lord, is _ all my suit:|Lord, let|thy mer- cy come.|

